X:3373
L:1/8
Q:1/8=150
M:2/2
K:D
 dB | AFDF AFdB | A2 FA fedc | BdGB gefd | e2 dB A2 FG | AFDF AFdB | AdFA fedc | BABd gefd | 
 ec (3ABc d2 :| de | fdcd BdAd | FAde fdcd | eA A2 gefd | e2 dB A2 de | fdcd BdAd | FAde fdcd | 
 eAfA gefd | ec (3ABc d2 :|

